X:38
T:Ha a Tiszán
O: Környe (Komárom), Zelenai Béla (45)
Q: "Tempo guisto" 1/4=84
M:4/4
L:1/4
K:F
F<F C<C | G>A BG | F<A C z |
FFCC | G>A B<G | F<A C z |
c>c d d | c>d c F | c>c G z | c<c G z | 
B/A/G/A/ F C | B/A/G/A/ F C | F>G F E | F2 F z | 

